X: 218
T: No_74_Baby_Alligator_Dance_Song_(a).krn
N: Derived from No_74_Baby_Alligator_Dance_Song_(a).krn
%%abc-version 2.0
%%abcx-abcm2ps-target-version 5.9.1 (29 Sep 2008)
%%abc-creator hum2abc beta
%%abcx-conversion-date 2019/03/15 08:38:45
%%humdrum-veritas 2136120558
%%humdrum-veritas-data 840080630
%%linebreak <none>
%%barnumbers 0
L: 1/8
M: 2/4
K: G clef=bass
[K:clef=bass][M:2/4]z B,/B,/B,2 | 
D3/B,/ D3/D/ | 
(3(B,/A,)G, G, z | 
G,3/G,/ B,3/D/ ||  
[M:3/8](3B,A,G, G, | 
[M:2/4]!fermata!D3/D/ B,C/B,/ [I:setbarnb 7]| 
A,3/G,/ G,E,- | 
E, z E,3/E,/ | 
G,2G,2 | 
G,3/B,/ B,/B,/A, | 
G,/G,/G,G,2 ||  
[M:3/4]z2E,3/E,/G,2 :|]  



% FRACTION = 0.499634BUT SHOULD BE 0
% FRACTION = 0.499634BUT SHOULD BE 0
